X:22
T: ROTHE BAECKLE BLAU AEUGLE
N: E1019
O: Europa, Mitteleuropa, Deutschland, Bayern
R: Tanz - Lied; Liebe
M: 3/4
L: 1/8
K: G
DD | G3FG2 | A2e2
dd | c2E2F2 | G2e2
d2 | B2F2G2 | A2e2
dd | c2E2F2 | G2z2

@@@ Tune index: 4706
